brandFactory_export/1.Light/Fibra_1Light.svg

<?xml version="1.0" encoding="UTF-8"?>
<svg width="24px" height="24px" viewBox="0 0 24 24" version="1.1" xmlns="http://www.w3.org/2000/svg" xmlns:xlink="http://www.w3.org/1999/xlink">
    <title>1.Light/Fibra_1Light</title>
    <g id="Symbols" stroke="none" stroke-width="1" fill="none" fill-rule="evenodd">
        <g id="1.Light/Fibra_1Light" fill="#5CB615" fill-rule="nonzero">
            <path d="M11.8084034,0.00336134454 C15.5764706,0.00336134454 18.497479,0.978151261 20.4941176,2.90420168 C22.5647059,4.90084034 23.6168067,7.89915966 23.6168067,11.8117647 C23.6168067,19.5361345 19.5327731,23.6168067 11.8084034,23.6168067 C4.08739496,23.6168067 0.00336134451,19.5361345 0.00336134451,11.8151261 C0.00336134451,4.09411765 4.08739496,0.00336134454 11.8084034,0.00336134454 Z M11.8084034,0.675630252 C8.22184874,0.675630252 5.45546218,1.58991597 3.58991597,3.38823529 C1.65714286,5.25378151 0.675630252,8.08739496 0.675630252,11.8117647 C0.675630252,14.4767419 1.17817795,16.6873609 2.17218982,18.4116026 L2.21848739,18.3529412 L2.21848739,18.3529412 L2.22521008,18.3462185 L6.21512605,14.4067227 C6.34621849,14.2756303 6.56134454,14.2789916 6.68907563,14.410084 L7.24705882,14.9747899 C8.14888205,13.308087 9.16023103,10.688842 9.39065344,7.100565 C9.10494545,7.04079417 8.85988736,6.90679123 8.65882353,6.69579832 C8.38655462,6.41008403 8.24201681,6.02352941 8.24201681,5.55630252 C8.24201681,5.08907563 8.38319328,4.70252101 8.65882353,4.41680672 C8.93445378,4.13109244 9.30420168,3.97647059 9.74453782,3.97647059 C10.1848739,3.97647059 10.5478992,4.12436975 10.8302521,4.41680672 C11.112605,4.7092437 11.2470588,5.08907563 11.2470588,5.55630252 C11.2470588,6.02352941 11.1058824,6.41008403 10.8302521,6.69579832 C10.6235294,6.91008403 10.3619748,7.05063025 10.0597689,7.1075105 L10.0638655,7.05210084 C9.84537815,10.6655462 8.85378151,13.3445378 7.9394958,15.0957983 L15.1880457,7.93962073 C15.0159426,7.68995464 14.9336528,7.41269695 14.9411765,7.1092437 C14.9512605,6.71260504 15.1260504,6.34285714 15.4621849,6.01344538 C15.7983193,5.68403361 16.1680672,5.5092437 16.5680672,5.49915966 C16.9747899,5.48907563 17.3378151,5.63697479 17.6504202,5.94621849 C17.9630252,6.25546218 18.1142857,6.61512605 18.1042017,7.02184874 C18.0941176,7.41848739 17.9159664,7.78823529 17.5831933,8.11764706 C17.2504202,8.44705882 16.8773109,8.62184874 16.4773109,8.63193277 L16.4336134,8.63193277 C16.1566305,8.63193277 15.9016981,8.55729995 15.6700212,8.40803431 L8.52436975,15.4655462 C10.2630283,14.5795631 12.863107,13.6440732 16.3344172,13.4210872 C16.3846646,13.1047001 16.5248308,12.8353705 16.7529412,12.6151261 C17.0453782,12.3327731 17.4252101,12.1983193 17.892437,12.1983193 C18.3596639,12.1983193 18.7462185,12.3394958 19.0319328,12.6151261 C19.3176471,12.8907563 19.4722689,13.2605042 19.4722689,13.7008403 C19.4722689,14.1411765 19.3243697,14.5042017 19.0319328,14.7865546 C18.7394958,15.0689076 18.3630252,15.2033613 17.892437,15.2033613 C17.4218487,15.2033613 17.0386555,15.0621849 16.7529412,14.7865546 C16.5503069,14.5910722 16.4186834,14.3583936 16.3556725,14.088519 L16.4504202,14.0806723 C12.8201681,14.302521 10.1781513,15.3243697 8.49747899,16.2352941 L9.08571429,16.8302521 C9.21680672,16.9613445 9.21344538,17.1764706 9.08235294,17.3042017 L5.01018742,21.3295567 C6.76364748,22.4026118 9.04205874,22.9445378 11.8084034,22.9445378 C15.394958,22.9445378 18.1613445,22.0336134 20.0302521,20.2352941 C21.9663866,18.3697479 22.9478992,15.5361345 22.9478992,11.8151261 C22.9478992,8.09411765 21.9663866,5.25714286 20.0302521,3.39159664 C18.1613445,1.58991597 15.394958,0.675630252 11.8084034,0.675630252 Z M6.45042017,15.1193277 L2.69579832,18.8235294 C2.62342755,18.8959002 2.5658788,18.9406855 2.5182613,18.9651197 C2.83518048,19.4281321 3.19243197,19.8523269 3.58991597,20.2352941 C3.85684439,20.4926035 4.14221555,20.7317454 4.44579314,20.9526509 L4.48067227,20.9109244 L4.48067227,20.9109244 L8.37310924,17.0689076 L7.41176471,16.0941176 L7.08571429,15.7647059 L6.45042017,15.1193277 Z M17.892437,13.0016807 C17.6336134,13.0016807 17.4386555,13.0655462 17.3042017,13.1966387 C17.1697479,13.3277311 17.1092437,13.4857143 17.1092437,13.707563 L17.1092437,13.7243697 C17.112605,13.9327731 17.1764706,14.0907563 17.3042017,14.2117647 C17.4386555,14.3428571 17.6336134,14.4067227 17.892437,14.4067227 C18.1512605,14.4067227 18.3462185,14.3428571 18.4806723,14.2117647 C18.6151261,14.0806723 18.6756303,13.9226891 18.6756303,13.7042017 C18.6756303,13.4857143 18.6151261,13.3210084 18.4806723,13.1966387 C18.3462185,13.0722689 18.1512605,13.0016807 17.892437,13.0016807 Z M16.5848739,6.29579832 C16.3932773,6.29915966 16.2084034,6.39327731 16.0168067,6.57815126 C15.8252101,6.76302521 15.7344538,6.94453782 15.7310924,7.12941176 C15.7310924,7.31092437 15.7983193,7.46554622 15.9529412,7.61680672 C16.107563,7.76806723 16.2655462,7.83865546 16.4537815,7.83193277 C16.6453782,7.82857143 16.8302521,7.73445378 17.0184874,7.54957983 C17.2067227,7.36470588 17.3008403,7.18319328 17.3042017,6.99831933 C17.3109244,6.81680672 17.2403361,6.66218487 17.0857143,6.51092437 C16.9310924,6.35966387 16.7731092,6.28907563 16.5848739,6.29579832 Z M9.74453782,4.7697479 C9.52605042,4.7697479 9.36134454,4.83361345 9.23697479,4.96470588 C9.11260504,5.09579832 9.04201681,5.29411765 9.04201681,5.55294118 C9.04201681,5.81176471 9.10588235,6.00672269 9.23697479,6.14117647 C9.36134454,6.26890756 9.51596639,6.33277311 9.72436975,6.33613445 L9.74453782,6.33613445 C9.96302521,6.33613445 10.1243697,6.27226891 10.2521008,6.14117647 C10.3798319,6.01008403 10.4470588,5.81176471 10.4470588,5.55294118 C10.4470588,5.29411765 10.3831933,5.09915966 10.2521008,4.96470588 C10.1210084,4.8302521 9.96302521,4.7697479 9.74453782,4.7697479 Z" id="Fibra_1Light"></path>
        </g>
    </g>
</svg>

<svg width="24" height="24" viewBox="0 0 24 24" xmlns="http://www.w3.org/2000/svg"><path d="M11.808.003c3.768 0 6.69.975 8.686 2.901 2.07 1.997 3.123 4.995 3.123 8.908 0 7.724-4.084 11.805-11.809 11.805-7.72 0-11.805-4.08-11.805-11.802C.003 4.095 4.087.003 11.808.003zm0 .673c-3.586 0-6.353.914-8.218 2.712C1.657 5.254.676 8.088.676 11.812c0 2.665.502 4.875 1.496 6.6l.046-.06.007-.006 3.99-3.94a.335.335 0 01.474.004l.558.565C8.15 13.308 9.16 10.689 9.391 7.1a1.378 1.378 0 01-.732-.405c-.272-.286-.417-.672-.417-1.14 0-.467.141-.853.417-1.14.275-.285.645-.44 1.086-.44.44 0 .803.148 1.085.44.283.293.417.673.417 1.14 0 .468-.141.854-.417 1.14a1.418 1.418 0 01-.77.412l.004-.056c-.219 3.614-1.21 6.293-2.125 8.044l7.249-7.156a1.37 1.37 0 01-.247-.83c.01-.397.185-.767.521-1.097.336-.329.706-.504 1.106-.514.407-.01.77.138 1.082.447.313.31.464.67.454 1.076-.01.396-.188.766-.52 1.096-.334.33-.707.504-1.107.514h-.043c-.277 0-.532-.075-.764-.224l-7.146 7.058c1.739-.886 4.34-1.822 7.81-2.045.05-.316.19-.586.419-.806.292-.282.672-.417 1.14-.417.467 0 .853.141 1.139.417.286.276.44.646.44 1.086 0 .44-.148.803-.44 1.086-.293.282-.669.416-1.14.416-.47 0-.853-.14-1.14-.416a1.39 1.39 0 01-.396-.698l.094-.008c-3.63.222-6.272 1.243-7.953 2.154l.589.595a.335.335 0 01-.004.474L5.01 21.33c1.754 1.073 4.032 1.615 6.798 1.615 3.587 0 6.353-.911 8.222-2.71 1.936-1.865 2.918-4.699 2.918-8.42 0-3.72-.982-6.558-2.918-8.423C18.161 1.59 15.395.676 11.808.676zM6.45 15.119l-3.754 3.705a.764.764 0 01-.178.141 8.154 8.154 0 001.928 1.988l.035-.042 3.892-3.842-.961-.975-.326-.33-.636-.645zm11.442-2.117c-.258 0-.453.064-.588.195-.134.13-.195.289-.195.51v.017c.004.209.067.367.195.488.135.13.33.195.588.195.26 0 .454-.064.589-.195.134-.131.195-.29.195-.508 0-.218-.06-.383-.195-.507-.135-.125-.33-.195-.589-.195zm-1.307-6.706c-.192.003-.377.097-.568.282-.192.185-.283.367-.286.551 0 .182.067.337.222.488.155.151.313.222.5.215.192-.003.377-.098.565-.282.189-.185.283-.367.286-.552.007-.181-.064-.336-.218-.487-.155-.151-.313-.222-.501-.215zM9.745 4.77c-.219 0-.384.064-.508.195-.124.13-.195.33-.195.588 0 .259.064.454.195.588a.653.653 0 00.487.195h.02c.219 0 .38-.064.508-.195.128-.13.195-.33.195-.588 0-.259-.064-.454-.195-.588-.131-.135-.289-.195-.507-.195z" fill="#5CB615" fill-rule="nonzero"/></svg>
